hosted_logos/velocity.svg

<svg xmlns="http://www.w3.org/2000/svg" role="img" viewBox="298.88 95.88 682.24 121.74"><title>Velocity (member) logo</title><style>svg {isolation:isolate}</style><defs><clipPath id="a"><path d="M0 0h1280v315H0z"/></clipPath></defs><g clip-path="url(#a)"><path d="M536.799 186.029l-17.99-54.028 6.937.01 15.639 46.938 15.936-46.888 6.938.011-18.16 53.971-9.3-.014zm48.016.075l.085-54 34.125.054-.01 6.337-27.45-.043-.027 16.913 22.95.036-.01 6.337-22.95-.036-.028 18.075 27.45.043-.01 6.338-34.125-.054zm58.889.093l.085-54 6.675.01-.075 47.663 25.05.039-.01 6.338-31.725-.05zm73.802 1.241c-5.375-.009-9.936-1.203-13.682-3.584-3.746-2.381-6.603-5.686-8.572-9.914-1.943-4.228-2.911-9.117-2.902-14.667.009-5.55.992-10.436 2.948-14.658 1.982-4.222 4.85-7.517 8.603-9.886 3.754-2.369 8.318-3.55 13.693-3.541 5.4.008 9.973 1.203 13.72 3.584 3.746 2.381 6.591 5.685 8.534 9.913 1.944 4.228 2.911 9.117 2.902 14.667-.009 5.55-.991 10.436-2.948 14.658-1.957 4.222-4.812 7.518-8.565 9.887-3.754 2.369-8.331 3.549-13.731 3.541zm.01-6.375c4.025.031 7.376-.864 10.054-2.684 2.703-1.846 4.72-4.406 6.05-7.678 1.355-3.273 2.036-7.06 2.043-11.36.006-4.325-.663-8.113-2.008-11.365-1.319-3.253-3.328-5.793-6.025-7.622-2.672-1.83-6.021-2.76-10.046-2.791-4.025-.032-7.376.863-10.054 2.684-2.653 1.821-4.657 4.368-6.012 7.641-1.355 3.272-2.049 7.071-2.08 11.396-.032 4.3.624 8.076 1.969 11.328 1.345 3.253 3.354 5.806 6.026 7.66 2.697 1.829 6.058 2.759 10.083 2.791zm69.922 6.485c-5.375-.009-9.936-1.204-13.682-3.584-3.747-2.381-6.604-5.686-8.572-9.914-1.944-4.228-2.911-9.117-2.902-14.667.008-5.55.991-10.436 2.948-14.658 1.981-4.222 4.849-7.517 8.603-9.886 3.754-2.369 8.318-3.55 13.693-3.541 6.25.009 11.385 1.605 15.405 4.786 4.045 3.182 6.826 7.461 8.342 12.838l-6.79 1.79c-1.094-4.027-3.051-7.205-5.873-9.534-2.821-2.33-6.519-3.498-11.094-3.505-4.025-.007-7.377.901-10.054 2.721-2.678 1.821-4.695 4.368-6.05 7.641-1.355 3.248-2.048 7.034-2.08 11.359-.032 4.3.625 8.089 1.969 11.366 1.345 3.252 3.366 5.805 6.063 7.659 2.697 1.829 6.059 2.747 10.084 2.754 4.575.007 8.276-1.15 11.105-3.47 2.829-2.346 4.796-5.518 5.902-9.516l6.785 1.81c-1.533 5.348-4.327 9.619-8.383 12.812-4.029 3.169-9.169 4.748-15.419 4.739zm47.75-1.05l.085-54 6.675.01-.085 54-6.675-.01zm46.84.073l.075-47.662-18.413-.029.01-6.338 43.5.069-.01 6.337-18.412-.029-.075 47.663-6.675-.011zm61.266.096l.035-22.462-18.138-31.566 7.763.012 13.762 23.909 13.8-23.866 7.763.013-18.2 31.509-.035 22.462-6.75-.011z"/><clipPath id="b"><path fill="#FFF" d="M312 109.217h158.3v95.8H312z"/></clipPath><g clip-path="url(#b)"><linearGradient id="c" x1="1" x2="-.11" y1=".497" y2=".497" gradientTransform="matrix(100 0 0 38 312 138.097)" gradientUnits="userSpaceOnUse"><stop offset="0%" stop-color="#fe7e20"/><stop offset="100%" stop-color="#ffc163"/></linearGradient><path fill="url(#c)" d="M397.8 176.097l-85.8-19 85.8-19 14.2 19-14.2 19z"/><path fill="#5C2AC6" d="M411.622 124.505l-.2-.235H374l3.193-5.638.499-.94 4.79-8.692h60.474L470 146h-42.711l-15.667-21.495zm0 64.99l-.2.235H374l3.193 5.638.499.94 4.79 8.692h60.474L470 168h-42.711l-15.667 21.495z"/></g></g></svg>

<svg width="1280" height="315" viewBox="0 0 1280 315" fill="none" xmlns="http://www.w3.org/2000/svg">
<rect width="1280" height="315" fill="white"/>
<path d="M536.799 186.029L518.809 132.001L525.746 132.011L541.385 178.949L557.321 132.061L564.259 132.072L546.099 186.043L536.799 186.029ZM584.815 186.104L584.9 132.104L619.025 132.158L619.015 138.495L591.565 138.452L591.538 155.365L614.488 155.401L614.478 161.738L591.528 161.702L591.5 179.777L618.95 179.82L618.94 186.158L584.815 186.104ZM643.704 186.197L643.789 132.197L650.464 132.207L650.389 179.87L675.439 179.909L675.429 186.247L643.704 186.197ZM717.506 187.438C712.131 187.429 707.57 186.235 703.824 183.854C700.078 181.473 697.221 178.168 695.252 173.94C693.309 169.712 692.341 164.823 692.35 159.273C692.359 153.723 693.342 148.837 695.298 144.615C697.28 140.393 700.148 137.098 703.901 134.729C707.655 132.36 712.219 131.179 717.594 131.188C722.994 131.196 727.567 132.391 731.314 134.772C735.06 137.153 737.905 140.457 739.848 144.685C741.792 148.913 742.759 153.802 742.75 159.352C742.741 164.902 741.759 169.788 739.802 174.01C737.845 178.232 734.99 181.528 731.237 183.897C727.483 186.266 722.906 187.446 717.506 187.438ZM717.516 181.063C721.541 181.094 724.892 180.199 727.57 178.379C730.273 176.533 732.29 173.973 733.62 170.701C734.975 167.428 735.656 163.641 735.663 159.341C735.669 155.016 735 151.228 733.655 147.976C732.336 144.723 730.327 142.183 727.63 140.354C724.958 138.524 721.609 137.594 717.584 137.563C713.559 137.531 710.208 138.426 707.53 140.247C704.877 142.068 702.873 144.615 701.518 147.888C700.163 151.16 699.469 154.959 699.438 159.284C699.406 163.584 700.062 167.36 701.407 170.612C702.752 173.865 704.761 176.418 707.433 178.272C710.13 180.101 713.491 181.031 717.516 181.063ZM787.438 187.548C782.063 187.539 777.502 186.344 773.756 183.964C770.009 181.583 767.152 178.278 765.184 174.05C763.24 169.822 762.273 164.933 762.282 159.383C762.29 153.833 763.273 148.947 765.23 144.725C767.211 140.503 770.079 137.208 773.833 134.839C777.587 132.47 782.151 131.289 787.526 131.298C793.776 131.307 798.911 132.903 802.931 136.084C806.976 139.266 809.757 143.545 811.273 148.922L804.483 150.712C803.389 146.685 801.432 143.507 798.61 141.178C795.789 138.848 792.091 137.68 787.516 137.673C783.491 137.666 780.139 138.574 777.462 140.394C774.784 142.215 772.767 144.762 771.412 148.035C770.057 151.283 769.364 155.069 769.332 159.394C769.3 163.694 769.957 167.483 771.301 170.76C772.646 174.012 774.667 176.565 777.364 178.419C780.061 180.248 783.423 181.166 787.448 181.173C792.023 181.18 795.724 180.023 798.553 177.703C801.382 175.357 803.349 172.185 804.455 168.187L811.24 169.997C809.707 175.345 806.913 179.616 802.857 182.809C798.828 185.978 793.688 187.557 787.438 187.548ZM835.188 186.498L835.273 132.498L841.948 132.508L841.863 186.508L835.188 186.498ZM882.028 186.571L882.103 138.909L863.69 138.88L863.7 132.542L907.2 132.611L907.19 138.948L888.778 138.919L888.703 186.582L882.028 186.571ZM943.294 186.667L943.329 164.205L925.191 132.639L932.954 132.651L946.716 156.56L960.516 132.694L968.279 132.707L950.079 164.216L950.044 186.678L943.294 186.667Z" fill="black"/>
<g clip-path="url(#clip0)">
<path d="M397.8 176.097L312 157.097L397.8 138.097L412 157.097L397.8 176.097Z" fill="url(#paint0_linear)"/>
<path d="M411.622 124.505L411.422 124.27H374L377.193 118.632L377.692 117.692L382.482 109H442.956L470 146H427.289L411.622 124.505Z" fill="#5C2AC6"/>
<path d="M411.622 189.495L411.422 189.73H374L377.193 195.368L377.692 196.308L382.482 205H442.956L470 168H427.289L411.622 189.495Z" fill="#5C2AC6"/>
</g>
<defs>
<linearGradient id="paint0_linear" x1="412" y1="157" x2="301" y2="157" gradientUnits="userSpaceOnUse">
<stop stop-color="#FE7E20"/>
<stop offset="1" stop-color="#FFC163"/>
</linearGradient>
<clipPath id="clip0">
<rect width="158.3" height="95.8" fill="white" transform="translate(312 109.217)"/>
</clipPath>
</defs>
</svg>
